X:1
T:The Shelf Behind the Door
T:The Shelf Behind the Door
T:Edwin L. Bowyer, arr. David Wesley Myland
T:Samuel Kennedy Wheatlake, 1898
T:Public Domain Courtesy of the Cyber Hymnal™
T:Public Domain Courtesy of the Cyber Hymnal™
C:Edwin L. Bowyer, arr. David Wesley Myland
Z:Public Domain
Z:Courtesy of the Cyber Hymnal™
%%score ( 1 2 ) ( 3 4 )
L:1/8
Q:1/4=107
M:6/8
K:Ab
V:1 treble 
V:2 treble 
V:3 bass 
V:4 bass 
V:1
 [CE] | [EA]2 [EA] [EA]2 [EB] | [Ec]2 [Ec] [Ec]2 [EA] | [FA]2 [DF] [FA]2 [FA] | E3- E2 E | %5
w: 1.~I|came to Je- sus|long a- go, all|la- den down with|sin, * I|
w: 2.~I|tore it down and|threw it out, and|then the bless- ing|came; * But|
w: 3.~So|ma- ny peo- ple|of to- day are|des- ti- tute of|power; * ’Tis|
w: 4.~Some|smoke and chew to-|bac- co, and some|love their fan- cy|dress; * O-|
w: 5.~That|lit- tle shelf be-|hind the door will|cause you much dis-|tress; * Es-|
w: 6.~Your|soul is dark, you|sure- ly know you|have no peace with|God; * You|
w: 7.~You|need not go to|for- eign lands to|find a house- hold|god, * To|
w: 8.~Some|hy- po- crites may|look like saints— from|men their i- dols|hide; * But|
 [EA]2 [EA] [EA]2 [EA] | [Ec]2 [Ec] [Ec]2 [Ec] | [Fc]2 [FB] [FB]2 [Fc] | [GB]3- [GB]2 [CE] | %9
w: sought Him long for|par- doning grace; He|would not take me|in. * At|
w: e’er I got the|vic- to- ry and|felt the ho- ly|flame, * Be-|
w: plain to see they|can- not stand tempt-|a- tion’s try- ing|hour. * By|
w: thers have wronged their|fel- low men, re-|fus- ing to con-|fess. * They|
w: pe- cial- ly a-|bout the time you|think of be- ing|blest. * While|
w: dai- ly trem- ble|lest you feel the|chast- ening of His|rod. * The|
w: look up- on id-|ol- a- try you|need not go a|rod, * But|
w: what a- bout the|judg- ment day be-|yond death’s fear- ful|tide? * That|
 [EA]2 [EA] [EA]2 [EB] | [Ec]2 [Ec] [Ec]2 [FA] | [FA]2 [DF] [FA]2 [FA] | [FA]3- [FA]2 [DF] | %13
w: last I found the|rea- son why as|light came more and|more; * I|
w: el- ze- bub came|rush- ing up and|said with aw- ful|roar, * “You|
w: way of an a-|pol- o- gy “my|weak- ness” is their|cry; * ’Tis|
w: won- der why they|are not blest as|in the days of|yore; * The|
w: plead- ing for the|vic- to- ry be-|fore the Lord in|prayer, * How|
w: bless- èd Ho- ly|Spir- it puts this|quest- ion o’er and|o’er: * What|
w: in this land where|Gos- pel light is|shin- ing all a-|round, * If|
w: hid- den spot be-|hind the door will|be a pub- lic|place * Where|
 E2 E [EA]2 [EB] | [Ec]2 [Ec] [Ec]2 [EA] | [FB]2 [FB] [EA]2 [EG] | [EA]3- [EA]2 ||"^Refrain" [Ec] | %18
w: had a shelf with|i- dols on just|in be- hind the|door. *||
w: can- not live with-|out a shelf right|here be- hind the|door.” *||
w: all be- cause of|i- dols they are|us- ing on the|sly. *||
w: rea- son why is|on the shelf just|in be- hind the|door. *|That|
w: ma- ny times you|think a- bout the|i- dols hid- den|there. *||
w: are you going to|do a- bout this|shelf be- hind the|door? *||
w: you should look be-|hind the door an|i- dol could be|found. *||
w: God and men and|an- gels, too, shall|ev- ery i- dol|trace. *||
 [Fd]2 [Fd] [FA]2 [FB] | [=Ec]3- [Ec]2 [FA] | [FA]2 [DF] [FA] [FA]2 | [FA]3- [FA]2 [DF] | %22
w: ||||
w: ||||
w: ||||
w: shelf be- hind the|door— * don’t|use it a- ny|more; * But|
w: ||||
w: ||||
w: ||||
w: ||||
 [CE]2 [CE] [CE]2 [CE] | [EA] [EA]2 [EA]2 [EA] | [Fc] [FB]2 [FB]2 [Fc] | [GB]3- [GB]2 [GB] | %26
w: ||||
w: ||||
w: ||||
w: quick- ly clean that|cor- ner out from|ceil- ing to the|floor; * For|
w: ||||
w: ||||
w: ||||
w: ||||
 [EA]2 [EA] [EA]2 [EB] | [Ac] [Ac]2 [Ac]2 [EA] | [FA] [DF]2 [FA]2 [FA] | [FA]3- [FA]2 [DF] | %30
w: ||||
w: ||||
w: ||||
w: Je- sus wants His|tem- ple clean, He|can- not bless you|more, * Un-|
w: ||||
w: ||||
w: ||||
w: ||||
 [CE]2 [CE] [EA]2 [FB] | [Ec] [Ac]2 !fermata![Ae]2 [Ad] | [Ac]2 [EA] [GB]2 [EG] | %33
w: |||
w: |||
w: |||
w: less you take those|i- dols out from|in be- hind the|
w: |||
w: |||
w: |||
w: |||
 [EA]3- [EA]2 x2 |] %34
w: |
w: |
w: |
w: door. *|
w: |
w: |
w: |
w: |
V:2
 x | x6 | x6 | x6 | E3- E2 E | x6 | x6 | x6 | x6 | x6 | x6 | x6 | x6 | E2 E x3 | x6 | x6 | x5 || %17
 x | x6 | x6 | x6 | x6 | x6 | x6 | x6 | x6 | x6 | x6 | x6 | x6 | x6 | x6 | x6 | x7 |] %34
V:3
 [A,,A,] | [A,,C]2 [A,,C] [A,,C]2 [A,,C] | [A,,A,]2 [A,,A,] [A,,A,]2 [C,A,] | %3
 [D,D]2 [D,A,] [D,D]2 [D,D] | [A,,C]3- [A,,C]2 [A,,C] | [A,,C]2 [A,,C] [A,,C]2 [A,,C] | %6
 [A,,A,]2 [A,,A,] [A,,A,]2 [A,,A,] | [B,,=D]2 [B,,D] [B,,D]2 [B,,D] | [E,E]3- [E,E]2 [A,,A,] | %9
 [A,,C]2 [A,,C] [A,,C]2 [A,,C] | [A,,A,]2 [A,,A,] [A,,A,]2 [C,A,] | [D,D]2 [D,A,] [D,D]2 [D,D] | %12
 [D,D]3- [D,D]2 [D,A,] | [A,,C]2 [A,,C] [C,A,]2 [E,G,] | A,2 A, A,2 [C,A,] | %15
 [D,A,]2 [D,D] [E,C]2 [E,B,] | [A,,C]3- [A,,C]2 || [A,,A,] | [D,A,]2 [D,A,] [D,D]2 [D,A,] | %19
 [C,G,]3- [C,G,]2 [D,A,] | [D,A,]2 [D,A,] [D,D] [D,D]2 | [D,D]3- [D,D]2 [D,A,] | %22
 [A,,A,]2 [A,,A,] [A,,A,]2 [A,,A,] | [A,,C] [A,,C]2 [A,,C]2 [A,,C] | %24
 [B,,=D] [B,,D]2 [B,,D]2 [B,,D] | [E,E]3- [E,E]2 [E,D] | [A,C]2 [A,C] [A,C]2 [A,D] | %27
 [A,E] [A,E]2 [A,E]2 [A,C] | [D,A,] [D,A,]2 [D,D]2 [D,D] | [D,D]3- [D,D]2 [D,A,] | %30
 [A,,A,]2 [A,,A,] [C,A,]2 [E,G,] | A, [A,E]2 !fermata![A,C]2 [D,F] | [E,E]2 [E,C] [E,D]2 [E,B,] | %33
 [A,,C]3- [A,,C]4 |] %34
V:4
 x | x6 | x6 | x6 | x6 | x6 | x6 | x6 | x6 | x6 | x6 | x6 | x6 | x6 | A,2 A, A,2 x | x6 | x5 || x | %18
 x6 | x6 | x6 | x6 | x6 | x6 | x6 | x6 | x6 | x6 | x6 | x6 | x6 | A, x5 | x6 | x7 |] %34

